**kern
*clefF4
*k[]
*M5/4
=1-
2D 2BB
4D
(16C
8C)
16BB
4C
=2
2C
4r
2C
=3
4D-
8E
16D-
8C
4BB 4GG
4C 4AA 4FF-
16BB
8AA
=4
(2BB
4C)
4r
8BB
8BB
=5
8BB
4BB
16r
4C
4BB
8C
(16BB
8C)
=6
4C
4BB
2BB
4C#
=7
16r
4C
8C-
8C-
8BB
2BB
16AA
=8
1BB
4AA
=9
4.AA
16BB
4AA
4BB
16r
16r
16BB
8C
=10
2D
4r
8E
16D
4C
16BB
=11
*-